images/icons/trash.svg

<svg width="20" height="21" viewBox="0 0 20 21" fill="none" xmlns="http://www.w3.org/2000/svg">
<path d="M10 0.75C10.8301 0.749946 11.6288 1.06755 12.2322 1.63767C12.8356 2.20779 13.198 2.98719 13.245 3.816L13.25 4H18.5C18.69 4.00006 18.8729 4.07224 19.0118 4.20197C19.1506 4.3317 19.2351 4.5093 19.248 4.69888C19.261 4.88846 19.2015 5.07589 19.0816 5.2233C18.9617 5.37071 18.7902 5.4671 18.602 5.493L18.5 5.5H17.704L16.424 18.52C16.3599 19.1691 16.0671 19.7743 15.598 20.2275C15.1289 20.6806 14.5139 20.9523 13.863 20.994L13.687 21H6.313C5.66046 21 5.02919 20.7679 4.53201 20.3453C4.03482 19.9227 3.70412 19.337 3.599 18.693L3.576 18.519L2.295 5.5H1.5C1.31876 5.49999 1.14366 5.43436 1.00707 5.31523C0.870481 5.19611 0.781648 5.03155 0.757 4.852L0.75 4.75C0.750008 4.56876 0.815643 4.39366 0.934767 4.25707C1.05389 4.12048 1.21845 4.03165 1.398 4.007L1.5 4H6.75C6.75 3.13805 7.09241 2.3114 7.7019 1.7019C8.3114 1.09241 9.13805 0.75 10 0.75ZM16.197 5.5H3.802L5.069 18.372C5.09705 18.6592 5.22362 18.9279 5.42722 19.1324C5.63082 19.3369 5.89892 19.4647 6.186 19.494L6.313 19.5H13.687C14.287 19.5 14.796 19.075 14.912 18.498L14.932 18.372L16.196 5.5H16.197ZM11.75 8.25C11.9312 8.25001 12.1063 8.31564 12.2429 8.43477C12.3795 8.55389 12.4684 8.71845 12.493 8.898L12.5 9V16C12.4999 16.19 12.4278 16.3729 12.298 16.5118C12.1683 16.6506 11.9907 16.7351 11.8011 16.748C11.6115 16.761 11.4241 16.7015 11.2767 16.5816C11.1293 16.4617 11.0329 16.2902 11.007 16.102L11 16V9C11 8.80109 11.079 8.61032 11.2197 8.46967C11.3603 8.32902 11.5511 8.25 11.75 8.25ZM8.25 8.25C8.43124 8.25001 8.60634 8.31564 8.74293 8.43477C8.87952 8.55389 8.96835 8.71845 8.993 8.898L9 9V16C8.99994 16.19 8.92776 16.3729 8.79803 16.5118C8.6683 16.6506 8.4907 16.7351 8.30112 16.748C8.11154 16.761 7.92411 16.7015 7.7767 16.5816C7.62929 16.4617 7.5329 16.2902 7.507 16.102L7.5 16V9C7.5 8.80109 7.57902 8.61032 7.71967 8.46967C7.86032 8.32902 8.05109 8.25 8.25 8.25ZM10 2.25C9.56081 2.25002 9.13768 2.41517 8.81461 2.71268C8.49154 3.01019 8.29214 3.4183 8.256 3.856L8.25 4H11.75C11.75 3.53587 11.5656 3.09075 11.2374 2.76256C10.9092 2.43437 10.4641 2.25 10 2.25Z" fill="#7D7D7D"/>
</svg>

<svg width="20" height="21" fill="none" xmlns="http://www.w3.org/2000/svg"><path d="M10 .75a3.25 3.25 0 013.245 3.066L13.25 4h5.25a.75.75 0 01.102 1.493L18.5 5.5h-.796l-1.28 13.02a2.75 2.75 0 01-2.561 2.474l-.176.006H6.313a2.75 2.75 0 01-2.714-2.307l-.023-.174L2.295 5.5H1.5a.75.75 0 01-.743-.648L.75 4.75a.75.75 0 01.648-.743L1.5 4h5.25A3.25 3.25 0 0110 .75zm6.197 4.75H3.802l1.267 12.872a1.25 1.25 0 001.117 1.122l.127.006h7.374c.6 0 1.109-.425 1.225-1.002l.02-.126L16.196 5.5h.001zM11.75 8.25a.75.75 0 01.743.648L12.5 9v7a.75.75 0 01-1.493.102L11 16V9a.75.75 0 01.75-.75zm-3.5 0a.75.75 0 01.743.648L9 9v7a.75.75 0 01-1.493.102L7.5 16V9a.75.75 0 01.75-.75zm1.75-6a1.75 1.75 0 00-1.744 1.606L8.25 4h3.5A1.75 1.75 0 0010 2.25z" fill="#7D7D7D"/></svg>
